!!!OTL: Die Propheten der Natur.
!!!OTL-incipit: ALLGEMACH AUS DAEMMERUNG UND NACHT
!!!COM: A. Harder
!!!ARE: Europa, Mitteleuropa, Deutschland
!!!SCT: F0985
!!!TXL: @@DE
!!!YEM: Copyright 1995, estate of Helmut Schaffrath.
**kern	**text
*ICvox	*
*clefG2	*
*M4/4	*
*met(c)	*
*k[b-e-a-]	*
*E-:	*
!LO:TX:a:t=Mit Ausdruck.	!
{8.g	1._All-
16a-	-ge-
=1	=1
4.b-	-mach
8cc	aus
8b-	Dämme-
8a-	.
!LO:TUP:a	!
(>12g\L	-rung
12a-J	.
12f)	und
=2	=2
2.e-}	Nacht
{8e-	tritt
8e-	her-
=3	=3
4.cc^	-vor
8b-	der
8a-\	Son-
8g\	-ne
8a-\	Glanʒ
16ccL	und
16b-J	.
=4	=4
2g	Pracht,
4r}	.
{8g	Mor-
8g	-gen-
=5	=5
4.ee-^	-ſtern
8dd	und
8cc	Berge
8dd	.
8ee-	die
8ff	ſich
=6	=6
(8.ffL	rö-
16b-J)	.
4b-	-then,
4r}	.
!LO:TUP:a	!
{(12b-L	ſind
12ccJ)	.
12dd	der
=7	=7
4.ee-	Him-
8cc	-melskö-
8b-	.
8a-\	-ni-
12gL	-gin
12a-J	.
12f	Pro-
=8	=8
8.fL	-phe-
16e-J	.
4e-	-ten.
4r;}	.
==	==
!!!AGN: Natur - Lied
!!!ONB: ESAC (Essen Associative Code) Database: FINK
!!!AMT: simple quadruple
!!!AIN: vox
!!!EED: Helmut Schaffrath
!!!EEV: 1.0
!!!RDF**kern: > = above
!!!GTL: Lieder zum Preise der Natur
!!!source: Musikalischer Hausschatz der Deutschen. Eine Sammlung von über 1000 Liedern und Gesängen mit Singstimmen und Klavierbegleitung. Leipzig, Litterarisches Verlags-Haus.
!!!page: 742
!!!URL-scan: https://www.digitale-sammlungen.de/en/view/bsb11144622?page=634
!!!ENC: Anna Maria Matuszewska
!!!EEV: 2024/08/08
*-	*-